public/assets/cocktail.svg

<svg width="32" height="32" viewBox="0 0 32 32" fill="none" xmlns="http://www.w3.org/2000/svg">
<path d="M11.9998 28H15.9998M19.9998 28H15.9998M15.9998 28V17.3333M15.9998 17.3333L25.3332 8.66663H6.6665L15.9998 17.3333ZM17.9998 11.3333L20.6665 3.33329L25.3332 2.66663" stroke="#C7C7C7" stroke-width="2" stroke-linecap="round" stroke-linejoin="round"/>
</svg>

<svg xmlns="http://www.w3.org/2000/svg" width="32" height="32" fill="none"><path stroke="#C7C7C7" stroke-linecap="round" stroke-linejoin="round" stroke-width="2" d="M12 28h4m4 0h-4m0 0V17.333m0 0 9.333-8.666H6.667L16 17.333Zm2-6 2.666-8 4.667-.666"/></svg>
